images/icon-mail.svg

<svg width="30" height="31" viewBox="0 0 30 31" fill="none" xmlns="http://www.w3.org/2000/svg">
<path fill-rule="evenodd" clip-rule="evenodd" d="M3.75611 5.38403C2.12393 5.81323 0.920527 7.08477 0.609863 8.70852C0.486816 9.35153 0.486816 22.5059 0.609863 23.149C0.898555 24.6578 1.99561 25.8954 3.49889 26.4081L3.95463 26.5635L14.8238 26.5799C27.0387 26.5983 26.1141 26.6306 27.0992 26.1514C27.9798 25.7231 28.6014 25.1031 29.0362 24.2198C29.5355 23.2051 29.4975 23.8457 29.5169 16.1399C29.5355 8.72534 29.5364 8.74895 29.2218 7.97012C28.9865 7.38758 28.7111 6.96881 28.2698 6.52233C27.7941 6.04104 27.2367 5.69188 26.5718 5.4585L26.1031 5.29397L15.146 5.28207C4.46404 5.27047 4.17816 5.27305 3.75611 5.38403ZM3.96998 6.96049C3.11199 7.23477 2.42182 7.95483 2.19986 8.80725C2.12023 9.11311 2.10893 9.99717 2.10893 15.9287C2.10893 21.8603 2.12023 22.7444 2.19986 23.0502C2.42439 23.9126 3.1168 24.6282 3.98926 24.8997C4.33379 25.007 4.70867 25.0108 15.0288 25.0108C25.349 25.0108 25.7239 25.007 26.0684 24.8997C26.9614 24.6218 27.616 23.9202 27.8613 22.978C27.9927 22.4739 27.9927 9.38358 27.8613 8.8795C27.616 7.93725 26.9614 7.23565 26.0684 6.95774C25.7237 6.85039 25.3535 6.84682 15.009 6.84987C4.79457 6.85286 4.29084 6.8579 3.96998 6.96049Z" fill="#1E84B5"/>
<path d="M4.13086 10.7473C4.13086 10.3973 4.23603 10.2289 4.54102 10.0903C4.73455 10.0023 4.99676 10.0271 5.1825 10.1508C5.24859 10.1949 6.70019 11.4901 8.4082 13.0291C12.339 16.5709 12.8171 16.9917 13.1963 17.2432C13.6801 17.564 14.1207 17.6953 14.8242 17.7283C15.9015 17.7788 16.5615 17.5141 17.5835 16.6213C17.9189 16.3283 19.6016 14.8199 21.3228 13.2692C23.044 11.7185 24.5572 10.3641 24.6855 10.2594C24.8741 10.1055 24.9709 10.069 25.1905 10.069C25.5027 10.069 25.683 10.1739 25.8173 10.4336C25.9798 10.7479 25.8973 11.032 25.5367 11.4008C25.0808 11.8669 23.4213 13.394 21.9434 14.7075C21.2344 15.3376 20.6085 15.9047 20.5525 15.9678C20.4537 16.0791 20.5172 16.1486 22.771 18.3931C24.0471 19.664 25.1278 20.7558 25.1725 20.8194C25.2173 20.8829 25.2539 21.031 25.2539 21.1484C25.2539 21.5759 24.8118 21.8754 24.424 21.7104C24.3114 21.6625 23.2221 20.6429 21.8555 19.3061C20.5503 18.0294 19.4628 16.9845 19.439 16.984C19.4151 16.9835 19.1119 17.2367 18.7652 17.5466C17.5752 18.6104 16.8528 18.9916 15.6629 19.1834C15.2363 19.2522 15.0112 19.2576 14.5789 19.2093C13.3582 19.0731 12.6212 18.747 11.6602 17.9182C11.3218 17.6263 10.9317 17.2924 10.7934 17.1762L10.542 16.9649L9.85594 17.6339C9.47859 18.0019 8.41113 19.0472 7.48377 19.9568C6.55635 20.8664 5.72051 21.6505 5.62629 21.6992C5.35336 21.8403 5.1668 21.81 4.94531 21.5885C4.78723 21.4305 4.74609 21.3424 4.74609 21.1622C4.74609 21.0372 4.78295 20.8829 4.82807 20.8194C4.87312 20.7558 5.95371 19.6638 7.2293 18.3927C9.48246 16.1477 9.54574 16.0784 9.44719 15.9667C9.39135 15.9034 8.76562 15.3359 8.05664 14.7056C6.40283 13.2352 4.99494 11.9423 4.51172 11.4498C4.13853 11.0695 4.13086 11.0554 4.13086 10.7473Z" fill="#0E384C"/>
</svg>

<svg xmlns="http://www.w3.org/2000/svg" width="30" height="31" fill="none" viewBox="0 0 30 31"><path fill="#1e84b5" fill-rule="evenodd" d="M3.756 5.384C2.124 5.814.921 7.084.61 8.709c-.123.643-.123 13.797 0 14.44.289 1.509 1.386 2.746 2.889 3.26l.456.155 10.869.016c12.215.018 11.29.05 12.275-.429a4.04 4.04 0 0 0 1.937-1.931c.5-1.015.461-.374.48-8.08.02-7.415.02-7.391-.294-8.17a4.1 4.1 0 0 0-.952-1.448 4.4 4.4 0 0 0-1.698-1.064l-.469-.164-10.957-.012c-10.682-.012-10.968-.009-11.39.102M3.97 6.96c-.858.275-1.548.995-1.77 1.847-.08.306-.091 1.19-.091 7.122 0 5.931.011 6.815.09 7.121.225.863.918 1.578 1.79 1.85.345.107.72.11 11.04.11s10.695-.003 11.04-.11c.892-.278 1.547-.98 1.792-1.922.132-.504.132-13.594 0-14.099-.245-.942-.9-1.643-1.793-1.921-.344-.108-.715-.111-11.059-.108-10.214.003-10.718.008-11.039.11" clip-rule="evenodd"/><path fill="#0e384c" d="M4.13 10.747c0-.35.106-.518.411-.657a.7.7 0 0 1 .641.06c.067.045 1.518 1.34 3.226 2.88 3.931 3.54 4.41 3.962 4.788 4.213.484.321.925.452 1.628.485 1.078.05 1.737-.214 2.76-1.107a676 676 0 0 0 3.739-3.352 392 392 0 0 1 3.363-3.01c.188-.154.285-.19.505-.19.312 0 .492.105.626.365.163.314.08.598-.28.967-.456.466-2.116 1.993-3.594 3.307a57 57 0 0 0-1.39 1.26c-.1.111-.036.18 2.218 2.425 1.276 1.271 2.357 2.363 2.401 2.426a.7.7 0 0 1 .082.33c0 .427-.442.726-.83.561-.113-.047-1.202-1.067-2.568-2.404-1.306-1.277-2.393-2.322-2.417-2.322s-.327.253-.674.563c-1.19 1.063-1.912 1.445-3.102 1.636a3.4 3.4 0 0 1-1.084.026c-1.22-.136-1.958-.462-2.919-1.29a126 126 0 0 0-.867-.743l-.251-.211-.686.669c-.377.368-1.445 1.413-2.372 2.323-.928.91-1.763 1.694-1.858 1.742-.273.141-.46.111-.68-.11-.159-.159-.2-.247-.2-.427 0-.125.037-.28.082-.343s1.126-1.155 2.401-2.426c2.253-2.245 2.317-2.315 2.218-2.426a53 53 0 0 0-1.39-1.261c-1.654-1.47-3.062-2.764-3.545-3.256-.373-.38-.381-.395-.381-.703"/></svg>
